X:1947
L:1/8
M:2/2
K:D
|: AFAB de{g} f2 | (ef)dF E2 E2 | AFAB defg | fdec d2 d2 :: df a2 fd{fg} f2 | dfaf (e/f/e) e2 | 
 df a2 fdfa | fdec d2 d2 :|

